!!!!SEGMENT: 034_2-1-Sm-002.krn
!!!COM: Chopin, Fryderyk
!!!OTL: Grande Valse Brillante No. 2
!!!OPS: Op. 34
!!!PTL: Trois Valses Brillantes pour le Piano
!!!PPR: M. Schlesinger
!!!PPP: Paris
!!!NIFC-rismID:Wmfc M/175
!!!NIFC-shelfmark: PL-Wmfc M/175
!!!OMD: Lento.
**kern	**kern	**fing	**dynam
*part1	*part1	*	*part1
*staff2	*staff1	*	*
*clefF4	*clefG2	*	*
*k[]	*k[]	*	*
*a:	*a:	*	*
*M3/4	*M3/4	*	*
*	*	*	*
=1	=1	=1	=1
*^	*	*	*
!	!	!	!	!LO:DY:rj
(>2E	[2.AA	4r	.	p
.	.	(>4e 4c	.	.
8DL	.	4a 4c)	.	.
8EJ	.	.	.	.
=2	=2	=2	=2	=2
2F	2.AA_	4r	.	.
.	.	(>4d 4B	.	.
8GL	.	4a 4B)	.	.
8FJ	.	.	.	.
=3	=3	=3	=3	=3
(>2E)	2.AA_	4r	.	.
.	.	(>4e 4c	.	.
8DL	.	4a 4c)	.	.
8EJ	.	.	.	.
=4	=4	=4	=4	=4
2F	2.AA]	4r	.	.
.	.	(>4d 4B	.	.
8GL	.	4a 4B)	.	.
8FJ	.	.	.	.
*v	*v	*	*	*
!!LO:LB:g=original
=5	=5	=5	=5
2Et)	4r	.	.
.	(>4e 4c	.	.
(>8D#XL	4a 4c)	.	.
[8EJ	.	.	.
=6	=6	=6	=6
*^	*	*	*
2c	2.E_	4r	.	.
.	.	(>4f#X 4d#X	.	.
8BL	.	4a 4d#)	.	.
8AJ	.	.	.	.
=7	=7	=7	=7	=7
4B	(<2.E]	4r	.	.
!	!	!	!	!LO:HP:b=2
8cL	.	(>4e 4dn	.	<
8B	.	.	.	.
8A#X	.	4g#X 4d)	.	.
8BJ	.	.	.	.
.	.	.	.	[[
=8	=8	=8	=8	=8
2.e	2E)	4r	.	.
.	.	(>4d	.	.
.	4E/)	4g# 4d)	.	.
=9	=9	=9	=9	=9
(>2E	[2.AA	4r	.	.
.	.	(>4e 4c	.	.
8DL	.	4a 4c)	.	.
8EJ	.	.	.	.
!!LO:LB:g=original
=10	=10	=10	=10	=10
2F	2.AA_	4r	.	.
.	.	(>4d 4B	.	.
8GL	.	4a 4B)	.	.
8FJ	.	.	.	.
=11	=11	=11	=11	=11
(>2E)	2.AA_	4r	.	.
.	.	(>4e 4c	.	.
8DL	.	4a 4c)	.	.
8EJ	.	.	.	.
=12	=12	=12	=12	=12
2F	(<2.AA]	4r	.	.
.	.	(>4d 4B	.	.
8GL	.	4a 4B)	.	.
8FJ)	.	.	.	.
*v	*v	*	*	*
=13	=13	=13	=13
2Et)	4r	.	.
.	(>4e 4c	.	.
(>8D#XL	4a 4c)	.	.
[<8EJ	.	.	.
=14	=14	=14	=14
*^	*	*	*
2c	2.E_	4r	.	.
.	.	(>4f#X 4d#X	.	.
8BL	.	4a 4d#)	.	.
8AJ	.	.	.	.
!!LO:PB:g=original
=15	=15	=15	=15	=15
2B	2.E]	4r	.	.
.	.	(>4e 4dn	.	.
8cL	.	4g#X 4d)	.	.
8BJ	.	.	.	.
*v	*v	*	*	*
=16	=16	=16	=16
4A)	4a 4c	.	.
4r	4r	.	.
4r	4e	.	.
=17	=17	=17	=17
4AA\	4ee	.	.
4c 4E	4.a\	.	.
4c 4E	.	.	.
.	8b	.	.
=18	=18	=18	=18
4BB\	4r	.	.
4d 4E	(>4a\	.	.
4d 4E	4g#X)\	.	.
=19	=19	=19	=19
4BB\	4ff	.	.
4d 4G#X 4F	4.b	.	.
4d 4G# 4F	.	.	.
.	8cc	.	.
!!LO:LB:g=original
=20	=20	=20	=20
4C\	4r	.	.
4f 4A 4F	(>4b	.	.
4f 4A 4F	4a)\	.	.
=21	=21	=21	=21
4C#X\	(>4.aa	.	.
4f 4A 4G	.	.	.
.	8gg	.	.
!	!LO:TX:a:t=P:note-head-side tuplet number:problem	!	!
4e 4A 4G	12ggL	.	.
.	12ff	.	.
.	12eeJ	.	.
=22	=22	=22	=22
*^	*	*	*
4rB	2D	8ggL	.	.
.	.	8ff	.	.
4e 4A 4F	.	8a	.	.
.	.	8b	.	.
4d/ 4A 4F	4ryy	8cc	.	.
.	.	8ddJ	.	.
=23	=23	=23	=23	=23
*	*^	*	*	*
2reyy	4rc	2F\	8eeL	.	.
.	.	.	8dd	.	.
.	[<4A/	.	8d	.	.
.	.	.	8a	.	.
[4d	4A_/	4ryy	8cc	.	.
.	.	.	8bJ	.	.
!!LO:LB:g=original
=24	=24	=24	=24	=24	=24
2d]	4A]	2E\	8aML)\	.	.
.	.	.	(>8g#XJ	.	.
!	!	!	!LO:TX:a:t=P:note-head-side tuplet number:problem	!	!
.	4G#X	.	14bL	.	.
.	.	.	14cc	.	.
.	.	.	14dd	.	.
.	.	.	14dd#X	.	.
4rdyy	4r	4rDDyy	.	.	.
.	.	.	14ee	.	.
.	.	.	14ggn	.	.
.	.	.	14ffJ	.	.
*v	*v	*v	*	*	*
=25	=25	=25	=25
!	!LO:TX:a:t=P:note-head-side tuplet number:problem	!	!
4AA\	28%3dd#XL\	.	.
.	28%3ee	.	.
.	28%3d#X	1	.
4c 4E	.	.	.
.	28%3e	1	.
.	28%3cc	.	.
4c 4E	.	.	.
.	28%3b	.	.
.	28%3aJ	.	.
=26	=26	=26	=26
.	8qb/	.	.
4BB\	4a\	.	.
4d 4E	4g#X)\	.	.
4d 4E	(>4g#\	.	.
=27	=27	=27	=27
4BB\	8fL	.	.
.	8ff	.	.
*	*tuplet	*	*
!	!LO:TX:a:t=P:note-head-side tuplet number:problem	!	!
4d 4G#X 4F	12a#X	.	.
.	12b	.	.
.	12cc	.	.
*	*tuplet	*	*
!	!LO:TX:a:t=P:note-head-side tuplet number:problem	!	!
4d 4G# 4F	12b	.	.
.	12dd	.	.
.	12ccJ)	.	.
*	*Xtuplet	*	*
!!LO:LB:g=original
=28	=28	=28	=28
4C\	(>4b	.	.
4f 4A 4F	4a\)	.	.
4f 4A 4F	4a\	.	.
=29	=29	=29	=29
*^	*^	*	*
4rc	2.C#X	(>2aa	4.aa	.	.
4e 4A 4G	.	.	.	.	.
.	.	.	8ggL	.	.
4e 4A 4G	.	4ryy	8ff	.	.
.	.	.	8eeJ	.	.
=30	=30	=30	=30	=30	=30
4rd	2.D	2aa	4gg	.	.
4d 4A 4F	.	.	8ryy	.	.
.	.	.	8ffL	.	.
4d 4A 4F	.	4ryy	8ee	.	.
.	.	.	8ddJ	.	.
=31	=31	=31	=31	=31	=31
4rd	2.E	2aa	4.ff	.	.
4g 4c#X 4A	.	.	.	.	.
.	.	.	8eeL	.	.
4g 4c# 4A	.	4ryy	8dd	.	.
.	.	.	8cc#XJ	.	.
!!LO:LB:g=original
=32	=32	=32	=32	=32	=32
4re	2F	2.aa	8eeL	.	.
*	*	*	*tuplet	*	*
!	!	!	!LO:TX:a:t=P:note-head-side tuplet number:problem	!	!
.	.	.	24ddL	.	.
.	.	.	24ee	.	.
.	.	.	24ddJ	.	.
4a 4d 4A	.	.	8cc#X	.	.
.	.	.	8dd	.	.
4r	4rCCyy	.	8ee	.	.
.	.	.	8ffJ	.	.
*v	*v	*	*	*	*
=33	=33	=33	=33	=33
4GG#X	2ee	4.ee	.	.
4d 4B 4E	.	.	.	.
.	.	8ddL	.	.
4d 4B 4E	4ryy	8cc	.	.
.	.	8bJ	.	.
=34	=34	=34	=34	=34
4AA	2.ee	4.dd	.	.
4c 4E	.	.	.	.
.	.	8ccL	.	.
4c 4E	.	8b	.	.
.	.	8aJ	.	.
=35	=35	=35	=35	=35
4EE	2.ee	4.cc	.	.
4d 4G#X 4E	.	.	.	.
.	.	8eL	.	.
4d 4G# 4E	.	8cc	.	.
.	.	8bJ	.	.
*	*v	*v	*	*
=36	=36	=36	=36
*^	*	*	*
4rA	2AA	4a)\	.	.
4c 4E	.	4r	.	.
4r	4rBBByy	4a^\	.	.
*v	*v	*	*	*
!!LO:PB:g=original
=37	=37	=37	=37
4BB\	4aT\	.	.
(>8fL	(>8gL	.	.
8G	8b	.	.
8A	8dd	.	.
8GJ)	[8ffJ)	.	.
=38	=38	=38	=38
4C\	(>4aa 4ff]	.	.
4e 4G	4gg 4ee)	.	.
4e 4G	(>4gg 4ee	.	.
=39	=39	=39	=39
4GG	4gM)\	.	.
(>8DL	(>8f#XL\	.	.
8G	8fn	.	.
8A	8ee	.	.
8BJ)	[8ddJ	.	.
=40	=40	=40	=40
*	*^	*	*
4C\	4dd]	4f	.	.
4c 4G	4cc)	4e	.	.
4c 4A	4cc\	4e	.	.
*	*v	*v	*	*
=41	=41	=41	=41
4EE	4fM<	.	.
(>8dL	(<8eL	.	.
8E	8g#X	.	.
8F	8b	.	.
8EJ)	[8ddJ)	.	.
=42	=42	=42	=42
4AA	(>4ff 4dd]	.	.
4c 4A 4E	4ee 4cc)	.	.
4c 4A 4E	(>4ee 4cc	.	.
!!LO:LB:g=original
=43	=43	=43	=43
4EE	4em<)	.	.
(>8BBL	(<8d#XL	.	.
8E	8dn	.	.
8F#X	8cc	.	.
8G#XJ)	[8bJ)	.	.
=44	=44	=44	=44
4AA	(<4b] 4d	.	.
4A 4E	4a 4c)	.	.
4F^ 4D	(<4a 4c	.	.
=45	=45	=45	=45
4GG	4aM 4B	.	.
8fL	8gnL/	.	.
8G	8b	.	.
8A	8dd	.	.
8GJ	[>8ffJ)	.	.
=46	=46	=46	=46
4C\	(>4aa 4ff]	.	.
4e 4G	4gg 4ee)	.	.
4e 4G	(>4gg 4ee	.	.
=47	=47	=47	=47
4GG	4gM\)	.	.
(>8DL	(>8f#XL\	.	.
8G	8fn	.	.
8A	8ee	.	.
8BJ)	[8ddJ	.	.
=48	=48	=48	=48
*	*^	*	*
4C\	4dd]	4f	.	.
4c 4G	4cc)	4e	.	.
4c 4A	4cc	4e/	.	.
*	*v	*v	*	*
!!LO:LB:g=original
=49	=49	=49	=49
4EE	4fM	.	.
(>8dL	(<8eL	.	.
8E	8g#X	.	.
8F	8b	.	.
8EJ)	[8ddJ)	.	.
=50	=50	=50	=50
4AA	(>4ff 4dd]	.	.
4c 4A 4E	4ee 4cc)	.	.
4c 4A 4E	(>4ee 4cc	.	.
=51	=51	=51	=51
(>4EE	4e^m)\	.	.
4BB	(>8d#XL\	.	.
.	8dn	.	.
4G#X	8cc	.	.
.	8bJ	.	.
=52	=52	=52	=52
4d	8aL	.	.
*clefG2	*	*	*
.	8g#X	.	.
4b)	8ff	.	.
.	8ee	.	.
4r	8dd#X	.	.
.	8ddnJ)	.	.
*clefF4	*	*	*
=53	=53	=53	=53
*k[f#c#g#]	*k[f#c#g#]	*	*
!	!LO:TX:a:B:t=sostenuto.	!	!
!	!	!	!LO:DY:b=1
4AA	(>2.cc#	.	f
4c# 4E	.	.	.
4c# 4Gn 4E	.	.	.
=54	=54	=54	=54
4D	2b	.	.
4d 4F#	.	.	.
4d 4B 4F#	4a\	.	.
!!LO:LB:g=original
=55	=55	=55	=55
.	8qqg#/L	.	.
.	8qqa/J	.	.
*^	*	*	*
4re	2E	4g#\	.	.
2d 2B	.	8f##XL\	.	.
.	.	8g#	.	.
.	4E#X	8a	.	.
.	.	8bJ	.	.
=56	=56	=56	=56	=56
4re	2.F#	2.a)\	.	.
4c# 4A	.	.	.	.
4c# 4A	.	.	.	.
=57	=57	=57	=57	=57
4rd	2E	(>2.b	.	.
4e 4B 4G#	.	.	.	.
4rfyy	4D	.	.	.
*v	*v	*	*	*
=58	=58	=58	=58
4C#\	2cc#	.	.
4e#X 4B 4G#	.	.	.
4f# 4A 4F#	4a\	.	.
=59	=59	=59	=59
.	8qqf#/LL	.	.
.	8qqg#/JJ	.	.
*^	*	*	*
4rd	2D	4f#\	.	.
4d 4B 4F#	.	8e#XL\	.	.
.	.	8f#	.	.
4reyy	4BB	8ee	.	.
.	.	8ddJ	.	.
=60	=60	=60	=60	=60
4rd	2.E	2b	.	.
4f# 4d 4G#	.	.	.	.
4e 4d 4G#	.	4b#X	.	.
*v	*v	*	*	*
!!LO:LB:g=original
=61	=61	=61	=61
4AA\	2.cc#	.	.
4c# 4A 4E	.	.	.
4c# 4A 4E	.	.	.
=62	=62	=62	=62
*^	*	*	*
4rd	2.D	2b	.	.
4B 4F#	.	.	.	.
4B 4F#	.	4a\	.	.
=63	=63	=63	=63	=63
.	.	8qqg#/L	.	.
.	.	8qqa/J	.	.
4rd	2.E	4g#\	.	.
4d 4B	.	8f##XL\	.	.
.	.	8g#	.	.
4d 4B	.	8a	.	.
.	.	8bJ	.	.
=64	=64	=64	=64	=64
4re	2Fn	2.a)\	.	.
2cn 2A	.	.	.	.
.	4D#X	.	.	.
*v	*v	*	*	*
=65	=65	=65	=65
*ped	*	*	*
4E	(>8eL	.	.
.	8a	.	.
*clefG2	*	*	*
4a 4c#	8b	.	.
.	8cc#	.	.
4r	8dd	.	.
.	8eeJ	.	.
=66	=66	=66	=66
2.rdd	8ff#L	.	.
.	8ddd	.	.
.	8ccc#	.	.
.	8ee	.	.
.	8cc#	.	.
.	8aaJ	.	.
*clefF4	*	*	*
!!LO:PB:g=original
=67	=67	=67	=67
*	*^	*	*
*	*	*ped	*	*
4EE	4ryy	8ff#L\	.	.
.	.	8a	.	.
4d 4G#X 4E	4f#	8f#	.	.
.	.	8dd	.	.
4d 4G# 4E	4ryy	8cc#	.	.
.	.	8eJ	.	.
*	*	*Xped	*	*
*	*v	*v	*	*
=68	=68	=68	=68
*^	*	*	*
4rG	2AA	2a 2c#)	.	.
4e 4A 4E	.	.	.	.
4r	4ryy	4cn	.	.
*v	*v	*	*	*
=69	=69	=69	=69
*k[]	*k[]	*	*
4AA	(>2.cc	.	p
4c 4A 4E	.	.	.
4c 4A 4E	.	.	.
=70	=70	=70	=70
4D	2b-X	.	.
4d 4B-X 4F	.	.	.
4d 4B- 4F	4a\	.	.
=71	=71	=71	=71
.	8qqg#X/L	.	.
.	8qqa/J	.	.
*^	*	*	*
4re	2.E	4g#y\	.	.
4d 4B	.	8f##XL\	.	.
.	.	8g#	.	.
4d 4B	.	8a	.	.
.	.	8bJ	.	.
=72	=72	=72	=72	=72
4re	2.F	2.a)\	.	.
4c 4A	.	.	.	.
4c 4A	.	.	.	.
!!LO:LB:g=original
=73	=73	=73	=73	=73
4rd	2E	(>2.b	.	.
4e 4B 4G#X	.	.	.	.
4rcyy	4D	.	.	.
=74	=74	=74	=74	=74
4rd	2.C	2cc	.	.
4e 4A 4E	.	.	.	.
4e 4A 4E	.	4a\	.	.
=75	=75	=75	=75	=75
.	.	8qqf/LL	.	.
.	.	8qqg/JJ	.	.
4rd	2.D	4f\	.	.
4d 4B-X 4F	.	8eL\	.	.
.	.	8f	.	.
4d 4B- 4F	.	8ee	.	.
.	.	8ddJ	.	.
=76	=76	=76	=76	=76
4rd	2.E	2.b)	.	.
4f 4d 4G#X	.	.	.	.
4e 4d 4G#	.	.	.	.
*v	*v	*	*	*
=77	=77	=77	=77
4AA	(>2.cc	.	.
4c 4A 4E	.	.	.
4c 4A 4E	.	.	.
!!LO:LB:g=original
=78	=78	=78	=78
*^	*	*	*
4rd	2.D	2b-X)	.	.
4B-X 4F	.	.	.	.
4B- 4F	.	4a\	.	.
=79	=79	=79	=79	=79
.	.	8qqg#X/L	.	.
.	.	8qqa/J	.	.
4rd	2.E	4g#ym<	.	.
4d 4B	.	(<8f##XL	.	.
.	.	8g#	.	.
4d 4B	.	8a	.	.
.	.	8bJ	.	.
=80	=80	=80	=80	=80
4re	2F	2.a)	.	.
2c 2A	.	.	.	.
.	4D#X	.	.	.
*v	*v	*	*	*
=81	=81	=81	=81
*ped	*	*	*
4E	(>8eL	.	pp
.	8a	.	.
*clefG2	*	*	*
4a 4c	8b	.	.
.	8cc	.	.
4r	8dd	.	.
.	8eeJ	.	.
=82	=82	=82	=82
2.rdd	8ffL	.	.
.	8ddd	.	.
.	8ccc	.	.
.	8ee	.	.
.	8cc	.	.
.	8aaJ	.	.
*clefF4	*	*	*
!!LO:LB:g=original
=83	=83	=83	=83
*	*^	*	*
*ped	*	*	*	*
4EE	4rfffyy	8ffL	.	.
.	.	8a	.	.
4d 4G#X 4E	4f	8f	.	.
.	.	8dd	.	.
4d 4G# 4E	4reeeyy	8cc	.	.
.	.	8eJ	.	.
*Xped	*	*	*	*
*	*v	*v	*	*
=84	=84	=84	=84
*^	*	*	*
4rG	2AA	4a 4c)	.	.
4A 4E	.	4r	.	.
4r	4rEEyy	4e	.	.
*v	*v	*	*	*
=85	=85	=85	=85
4AA	(>4ee	.	.
4c 4E	4.a\	.	.
4c 4E	.	.	.
.	8b)	.	.
=86	=86	=86	=86
4BB\	4r	.	.
4d 4E	(>4a\	.	.
4d 4E	4g#X)\	.	.
=87	=87	=87	=87
4BB\	(>4ff	.	.
4d 4G#X 4F	4.b	.	.
4d 4G# 4F	.	.	.
.	8cc)	.	.
!!LO:LB:g=original
=88	=88	=88	=88
4C\	4r	.	.
4f 4A 4F	(>4b	.	.
4f 4A 4F	4a)\	.	.
=89	=89	=89	=89
4C#X\	(>4.aa	.	.
4f 4A 4G	.	.	.
.	8gg	.	.
*	*Xtuplet	*	*
4e 4A 4G	12ggL	.	.
.	12ff	.	.
.	12eeJ	.	.
*	*tuplet	*	*
=90	=90	=90	=90
*^	*	*	*
4rB	2D	8ggL	.	.
.	.	8ff	.	.
4e 4A 4F	.	8a	.	.
.	.	8b	.	.
4d/ 4A 4F	4ryy	8cc	.	.
.	.	8ddJ	.	.
=91	=91	=91	=91	=91
*	*^	*	*	*
2rgyy	4rB	2F\	8eeL	.	.
.	.	.	8dd	.	.
.	[4A/	.	8d	.	.
.	.	.	8a	.	.
[4d	4A_/	4ryy	8cc	.	.
.	.	.	8bJ	.	.
=92	=92	=92	=92	=92	=92
2d]	4A]	2E\	(>8aML)\	.	.
.	.	.	8g#XJ	.	.
!	!	!	!LO:TX:a:t=P:note-head-side tuplet number:problem	!	!
.	4G#X	.	14bL	.	.
.	.	.	14cc	.	.
.	.	.	14dd	.	.
.	.	.	14dd#X	.	.
4reyy	4r	4rDDyy	.	.	.
.	.	.	14ee	.	.
.	.	.	14ggn	.	.
.	.	.	14ffJ	.	.
*v	*v	*v	*	*	*
!!LO:PB:g=original
=93	=93	=93	=93
!	!LO:TX:a:t=P:note-head-side tuplet number:problem	!	!
4AA	28%3dd#XL\	.	.
.	28%3ee	.	.
.	28%3d#X	1	.
4c 4E	.	.	.
.	28%3e	1	.
.	28%3cc	.	.
4c 4E	.	.	.
.	28%3b	.	.
.	28%3aJ	.	.
=94	=94	=94	=94
.	8qb/	.	.
4BB	4a\	.	.
4d 4E	4g#X)\	.	.
4d 4E	(>4g#\	.	.
=95	=95	=95	=95
4BB	8fL	.	.
.	8ff	.	.
*	*tuplet	*	*
!	!LO:TX:a:t=P:note-head-side tuplet number:problem	!	!
4d 4G#X 4F	12a#X	.	.
.	12b	.	.
.	12cc	.	.
*	*tuplet	*	*
!	!LO:TX:a:t=P:note-head-side tuplet number:problem	!	!
4d 4G# 4F	12b	.	.
.	12dd	.	.
.	12ccJ)	.	.
=96	=96	=96	=96
4C\	(>4b	.	.
4f 4A 4F	4a)\	.	.
4f 4A 4F	(>4a	.	.
=97	=97	=97	=97
*^	*^	*	*
4rd	2C#X	2aa	4.aa	.	.
4e 4A 4G	.	.	.	.	.
.	.	.	8ggL	.	.
4e/ 4A 4G	4ryy	4ryy	8ff	.	.
.	.	.	8eeJ	.	.
!!LO:LB:g=original
=98	=98	=98	=98	=98	=98
4rd	2.D	2.aa	4.gg	.	.
4d 4A 4F	.	.	.	.	.
.	.	.	8ffL	.	.
4d 4A 4F	.	.	8ee	.	.
.	.	.	8ddJ	.	.
=99	=99	=99	=99	=99	=99
4rd	2.E	2.aa	4.ff	.	.
4g 4c#X 4A	.	.	.	.	.
.	.	.	8eeL	.	.
4g 4c# 4A	.	.	8dd	.	.
.	.	.	8cc#XJ	.	.
=100	=100	=100	=100	=100	=100
4re	2F	2.aa	8eeL	.	.
!	!	!	!LO:TX:a:t=P:note-head-side tuplet number:problem	!	!
.	.	.	24ddL	.	.
.	.	.	24ee	.	.
.	.	.	24ddJ	.	.
4a 4d 4A	.	.	8cc#X	.	.
.	.	.	8dd	.	.
4r	4rAAAyy	.	8ee	.	.
.	.	.	8ffJ	.	.
*v	*v	*	*	*	*
=101	=101	=101	=101	=101
4GG#X	2ee	4.ee	.	.
4d 4B 4E	.	.	.	.
.	.	8ddL	.	.
4d 4B 4E	4ryy	8cc	.	.
.	.	8bJ	.	.
=102	=102	=102	=102	=102
4AA	2.ee	4.dd	.	.
4c 4E	.	.	.	.
.	.	8ccL	.	.
4c 4E	.	8b	.	.
.	.	8aJ	.	.
!!LO:LB:g=original
=103	=103	=103	=103	=103
4EE	2.ee	4.cc	.	.
4d 4G#X 4E	.	.	.	.
.	.	8eL	.	.
4d 4G# 4E	.	8cc	.	.
.	.	8bJ	.	.
*	*v	*v	*	*
=104	=104	=104	=104
*^	*	*	*
4rA	2AA	4a)\	.	.
4c 4E	.	4r	.	.
4r	4rAAAyy	4a^\	.	.
*v	*v	*	*	*
=105	=105	=105	=105
4BB\	4aT\	.	.
(>8fL	(>8gL	.	.
8G	8b	.	.
8A	8dd	.	.
8GJ)	[8ffJ)	.	.
=106	=106	=106	=106
4C\	(>4aa 4ff]	.	.
4e 4G	4gg 4ee)	.	.
4e 4G	(>4gg 4ee	.	.
=107	=107	=107	=107
4GG	4gM)\	.	.
(>8DL	(>8f#XL\	.	.
8G	8fn	.	.
8A	8ee	.	.
8BJ)	[>8ddJ	.	.
=108	=108	=108	=108
*	*^	*	*
4C\	4dd]	4f	.	.
4c 4G	4cc)	4e	.	.
4c 4A	4cc\	4e	.	.
*	*v	*v	*	*
!!LO:LB:g=original
=109	=109	=109	=109
(>4EE	4fM\	.	.
8dL	(>8eL\	.	.
8E	8g#X	.	.
8F	8b	.	.
8EJ)	[8ddJ)	.	.
=110	=110	=110	=110
4AA	(>4ff 4dd]	.	.
4c 4A 4E	4ee 4cc)	.	.
4c 4A 4E	(>4ee 4cc	.	.
=111	=111	=111	=111
4EE	4em<)	.	.
(>8BBL	(<8d#XL	.	.
8E	8dn	.	.
8F#X	8cc	.	.
8G#XJ)	[>8bJ)	.	.
=112	=112	=112	=112
4AA	(<4b] 4d	.	.
4A 4E	4a 4c)	.	.
4F 4D	(<4a^ 4c	.	.
=113	=113	=113	=113
4GG	4aM 4B	.	.
8fL	8gnL/	.	.
8G	8b	.	.
8A	8dd	.	.
8GJ	[>8ffJ)	.	.
=114	=114	=114	=114
4C\	(>4aa 4ff]	.	.
4e 4G	4gg 4ee)	.	.
4e 4G	(>4gg 4ee	.	.
!!LO:LB:g=original
=115	=115	=115	=115
4GG	4gM)\	.	.
8DL	(>8f#XL\	.	.
8G	8fn	.	.
8A	8ee	.	.
8BJ	[>8ddJ	.	.
=116	=116	=116	=116
*	*^	*	*
4C\	4dd])	4f	.	.
4c 4G	4cc	4e	.	.
4c 4A	4cc\	4e	.	.
*	*v	*v	*	*
=117	=117	=117	=117
4EE	4fM<	.	.
(>8dL	(<8eL	.	.
8E	8g#X	.	.
8F	8b	.	.
8EJ)	[8ddJ)	.	.
=118	=118	=118	=118
4AA	(>4ff 4dd]	.	.
4c 4A 4E	4ee 4cc)	.	.
4c 4A 4E	(>4ee 4cc	.	.
=119	=119	=119	=119
(>4EE	4e^>m<)	.	.
4BB	(>8d#XL\	.	.
.	8dn	.	.
4G#X	8cc	.	.
.	8bJ	.	.
=120	=120	=120	=120
4d	8aL	.	.
.	8g#X	.	.
*clefG2	*	*	*
4b)	8ff	.	.
.	8ee	.	.
4r	8dd#X	.	.
.	8ddnJ)	.	.
*clefF4	*	*	*
!!LO:PB:g=original
=121	=121	=121	=121
*k[f#c#g#]	*k[f#c#g#]	*	*
!	!LO:TX:a:B:t=sostenuto.	!	!
4AA	(>2.cc#	.	f
4c# 4E	.	.	.
4c# 4Gn 4E	.	.	.
=122	=122	=122	=122
4D	2b	.	.
4d 4F#	.	.	.
4d 4B 4F#	4a\	.	.
=123	=123	=123	=123
.	8qqg#/L	.	.
.	8qqa/J	.	.
*^	*	*	*
4re	2E	4g#\	.	.
2d 2B	.	8f##XL\	.	.
.	.	8g#	.	.
.	4E#X	8a	.	.
.	.	8bJ	.	.
=124	=124	=124	=124	=124
4re	2.F#	2.a)\	.	.
4c# 4A	.	.	.	.
4c# 4A	.	.	.	.
=125	=125	=125	=125	=125
4rc	2E	(>2.b	.	.
4e 4B 4G#	.	.	.	.
4reyy	4D	.	.	.
*v	*v	*	*	*
=126	=126	=126	=126
4C#\	2cc#	.	.
4e#X 4B 4G#	.	.	.
4f# 4A 4F#	4a)\	.	.
!!LO:LB:g=original
=127	=127	=127	=127
.	8qqf#/LL	.	.
.	8qqg#/JJ	.	.
*^	*	*	*
4rc	2D	(>4f#\	.	.
4d 4B 4F#	.	8e#XL\	.	.
.	.	8f#	.	.
4rAyy	4BB	8ee	.	.
.	.	8ddJ	.	.
=128	=128	=128	=128	=128
4rd	2.E	2b	.	.
4f# 4d 4G#	.	.	.	.
4e 4d 4G#	.	4b#X	.	.
*v	*v	*	*	*
=129	=129	=129	=129
4AA	2.cc#	.	.
4c# 4A 4E	.	.	.
4c# 4A 4E	.	.	.
=130	=130	=130	=130
*^	*	*	*
4rd	2.D	2b	.	.
4B 4F#	.	.	.	.
4B 4F#	.	4a\	.	.
=131	=131	=131	=131	=131
.	.	8qqg#/L	.	.
.	.	8qqa/J	.	.
4rd	2.E	4g#	.	.
4d 4B	.	8f##XL	.	.
.	.	8g#	.	.
4d 4B	.	8a	.	.
.	.	8bJ	.	.
=132	=132	=132	=132	=132
4re	2Fn	2.a)\	.	.
2cn 2A	.	.	.	.
.	4D#X	.	.	.
*v	*v	*	*	*
!!LO:LB:g=original
=133	=133	=133	=133
*ped	*	*	*
4E	(>8eL	.	.
.	8a	.	.
*clefG2	*	*	*
4a 4c#	8b	.	.
.	8cc#	.	.
4r	8dd	.	.
.	8eeJ	.	.
=134	=134	=134	=134
2.rdd	8ff#L	.	.
.	8ddd	.	.
.	8ccc#	.	.
.	8ee	.	.
.	8cc#	.	.
*Xped	*	*	*
.	8aaJ	.	.
*clefF4	*	*	*
=135	=135	=135	=135
*	*^	*	*
*ped	*	*	*	*
4EE	4rbbbyy	8ff#L	.	.
.	.	8a	.	.
4d 4G#X 4E	4f#	8f#	.	.
.	.	8dd	.	.
4d 4G# 4E	4rdddyy	8cc#	.	.
.	.	8eJ	.	.
*Xped	*	*	*	*
*	*v	*v	*	*
=136	=136	=136	=136
*^	*	*	*
4rG	2AA	2a 2c#)	.	.
4e 4A 4E	.	.	.	.
4r	4rDDyy	(>4cn	.	.
*v	*v	*	*	*
=137	=137	=137	=137
*k[]	*k[]	*	*
4AA	2.cc	.	p
4c 4A 4E	.	.	.
4c 4A 4E	.	.	.
=138	=138	=138	=138
4D	2b-X	.	.
4d 4B-X 4F	.	.	.
4d 4B- 4F	4a\	.	.
!!LO:LB:g=original
=139	=139	=139	=139
.	8qqg#X/L	.	.
.	8qqa/J	.	.
*^	*	*	*
4re	2.E	4g#y\	.	.
4d 4B	.	8f##XL\	.	.
.	.	8g#	.	.
4d 4B	.	8a	.	.
.	.	8bJ	.	.
=140	=140	=140	=140	=140
4re	2.F	2.a)\	.	.
4c 4A	.	.	.	.
4c 4A	.	.	.	.
=141	=141	=141	=141	=141
4rd	2E	(>2.b	.	.
4e 4B 4G#X	.	.	.	.
4rcyy	4D	.	.	.
=142	=142	=142	=142	=142
4rc	2.C	2cc	.	.
4e 4A 4E	.	.	.	.
4e 4A 4E	.	4a\	.	.
=143	=143	=143	=143	=143
.	.	8qqf/LL	.	.
.	.	8qqg/JJ	.	.
4rc	2.D	4f\	.	.
4d 4B-X 4F	.	8eL\	.	.
.	.	8f	.	.
4d 4B- 4F	.	8ee	.	.
.	.	8ddJ	.	.
=144	=144	=144	=144	=144
4rc	2.E	2.b)	.	.
4f 4d 4G#X	.	.	.	.
4e 4d 4G#	.	.	.	.
*v	*v	*	*	*
!!LO:LB:g=original
=145	=145	=145	=145
4AA	(>2.cc	.	.
4c 4A 4E	.	.	.
4c 4A 4E	.	.	.
=146	=146	=146	=146
*^	*	*	*
4rc	2.D	2b-X	.	.
4B-X 4F	.	.	.	.
4B- 4F	.	4a\	.	.
=147	=147	=147	=147	=147
.	.	8qqg#X/L	.	.
.	.	8qqa/J	.	.
4rc	2.E	4g#ym<	.	.
4d 4B	.	8f##XL	.	.
.	.	8g#	.	.
4d 4B	.	8a	.	.
.	.	8bJ	.	.
=148	=148	=148	=148	=148
4re	2F	2.a)\	.	.
2c 2A	.	.	.	.
.	4D#X	.	.	.
*v	*v	*	*	*
=149	=149	=149	=149
*ped	*	*	*
4E	(>8eL	.	.
.	8a	.	pp
*clefG2	*	*	*
4a 4c	8b	.	.
.	8cc	.	.
4r	8dd	.	.
.	8eeJ	.	.
=150	=150	=150	=150
2.rdd	8ffL	.	.
.	8ddd	.	.
.	8ccc	.	.
.	8ee	.	.
.	8cc	.	.
*Xped	*	*	*
.	8aaJ	.	.
*clefF4	*	*	*
!!LO:PB:g=original
=151	=151	=151	=151
*	*^	*	*
*ped	*	*	*	*
4EE	4reeeyy	8ffL	.	.
.	.	8a	.	.
4d 4G#X 4E	4f	8f	.	.
.	.	8dd	.	.
4d 4G# 4E	4raayy	8cc	.	.
.	.	8eJ	.	.
*Xped	*	*	*	*
*	*v	*v	*	*
=152	=152	=152	=152
*^	*	*	*
4rG	2AA	4a 4c)	.	.
4A 4E	.	4r	.	.
4r	4rDDyy	[4e^> [4c	.	.
=153	=153	=153	=153	=153
!	!LO:N:vis=2	!	!	!
2E	[2.AA	4e] 4c]	.	.
.	.	4e 4c	.	.
8DL	.	4a 4c	.	.
8EJ	.	.	.	.
=154	=154	=154	=154	=154
!	!LO:N:vis=2	!	!	!
2F	2.AA_	4r	.	.
.	.	(>4d 4B	.	.
8GL	.	4a 4B)	.	.
8FJ	.	.	.	.
=155	=155	=155	=155	=155
(>2E	2.AA_	4r	.	.
.	.	(>4e 4c	.	.
8DL	.	4a 4c)	.	.
8EJ	.	.	.	.
=156	=156	=156	=156	=156
2F	2.AA]	4r	.	.
.	.	(>4d 4B	.	.
8GL	.	4a 4B)	.	.
8FJ	.	.	.	.
*v	*v	*	*	*
!!LO:LB:g=original
=157	=157	=157	=157
2Et)	4r	.	.
.	(>4e 4c	.	.
(>8D#XL	4a 4c)	.	.
[<8EJ	.	.	.
=158	=158	=158	=158
*^	*	*	*
2c	2.E_	4r	.	.
.	.	(>4f#X 4d#X	.	.
8BL	.	4a 4d#)	.	.
8AJ	.	.	.	.
=159	=159	=159	=159	=159
4B	2.E_	4r	.	.
!	!	!	!	!LO:HP:b=2
.	.	.	.	<
8cL	.	(>4e 4dn	.	.
8B	.	.	.	.
8A#X	.	4g#X 4d)	.	.
8BJ	.	.	.	.
.	.	.	.	[[
=160	=160	=160	=160	=160
2e	2E]	4r	.	.
.	.	(>4d	.	.
4E/	4rBBByy	4g# 4d)	.	.
=161	=161	=161	=161	=161
4E	[2.AA	4r	.	.
4ryy	.	(>4e 4c	.	.
8DL	.	4a 4c)	.	.
8EJ	.	.	.	.
=162	=162	=162	=162	=162
2F	2.AA_	4r	.	.
.	.	(>4d 4B	.	.
8GL	.	4a 4B)	.	.
8FJ	.	.	.	.
!!LO:LB:g=original
=163	=163	=163	=163	=163
2E	2.AA_	4r	.	.
.	.	(>4e 4c	.	.
8DL	.	4a 4c)	.	.
8EJ	.	.	.	.
=164	=164	=164	=164	=164
2F	(<2.AA]	4r	.	.
.	.	(>4d 4B	.	.
8GL	.	4a 4B)	.	.
8FJ)	.	.	.	.
*v	*v	*	*	*
=165	=165	=165	=165
2Et)	4r	.	.
.	(>4e 4c	.	.
(>8D#XL	4a 4c)	.	.
[8EJ	.	.	.
=166	=166	=166	=166
*^	*	*	*
2c	2.E_	4r	.	.
.	.	(>4f#X 4d#X	.	.
8BL	.	4a 4d#)	.	.
8AJ	.	.	.	.
=167	=167	=167	=167	=167
2B	2.E]	4r	.	.
.	.	(>4e 4dn	.	.
8cL	.	4g#X 4d)	.	.
8BJ	.	.	.	.
*v	*v	*	*	*
=168	=168	=168	=168
2.A)	4r	.	.
.	(>4e 4c	.	.
.	4a 4c)	.	.
!!LO:LB:g=original
=169	=169	=169	=169
8qGG/	.	.	.
!	!	!	!LO:HP:b=2
(>4A	4r	.	>
8GL	(>4f 4B	.	.
8F	.	.	.
8E	4g 4f 4B)	.	.
8DJ)	.	.	]
=170	=170	=170	=170
(>8CL	4r	.	.
!	!	!	!LO:HP:b=2
8D	.	.	<
8E	(>4g 4c	.	.
8F	.	.	.
8F#X	4g 4e 4c)	.	.
8GJ	.	.	[
=171	=171	=171	=171
8AL	4r	.	.
!	!	!	!LO:HP:b=2
8G	.	.	<
8F#X	(>4g 4f 4B	.	.
8G	.	.	.
8A	4g 4f)	.	.
8BJ	.	.	.
=172	=172	=172	=172
8cL	4r	.	.
8d	.	.	.
8c	(>4g 4e	.	.
8Bn	.	.	[
8c	4cc 4e)	.	.
8dJ	.	.	.
=173	=173	=173	=173
4f	4r	.	.
8eL	(>4g#X	.	.
!	!	!	!LO:HP:b=2
8d	.	.	>
8c	4g# 4e 4d)	.	.
8BJ	.	.	.
=174	=174	=174	=174
8dL	4r	.	.
8c	.	.	.
8B	(>4a 4e 4c	.	]
8A	.	.	.
8G#X	4a 4e 4c)	.	.
8AJ	.	.	.
!!LO:LB:g=original
=175	=175	=175	=175
8BL	4r	.	.
!	!	!	!LO:HP:b=2
.	.	.	>
8A	.	.	.
8Gn	(>4a 4d#X 4B	.	.
8F	.	.	.
8E	4a 4d# 4B)	.	.
8FJ	.	.	.
=176	=176	=176	=176
8GL\	4r	.	.
8F	.	.	.
8E	4b 4a 4d#X	.	.
8F	.	.	]
8GG	4b 4a 4d#	.	.
8FFJ)	.	.	.
*ped	*	*	*
=177	=177	=177	=177
(>8EEL	4r	.	pp
8BB	.	.	.
!	!	!	!LO:HP:b=2
8E	4b 4g#X 4e	.	<
8G#X	.	.	.
8B	4b 4g#	.	.
8eJ	.	.	[
=178	=178	=178	=178
*	*^	*	*
4g#X	2ryy	4r	.	.
*Xped	*	*	*	*
!	!	!	!	!LO:HP:b=2
8f#XL	.	(>4b	.	>
8e	.	.	.	.
8d#X	[4b	4g#y	.	.
8c#XJ	.	.	.	]
=179	=179	=179	=179	=179
!	!	!	!	!LO:HP:b=2
8d#XL	4b]	4rc	.	>
8c#X	.	.	.	]
*ped	*	*	*	*
8B	4b	4a	.	.
8F#XJ	.	.	.	.
4BB)\	[4ff#X	4b 4a	.	.
!!LO:PB:g=original
=180	=180	=180	=180	=180
*Xped	*	*	*	*
!	!	!	!	!LO:HP:b=2
8d#XL	4ff#]	4rg	.	>
8c#X	.	.	.	.
*ped	*	*	*	*
8B	4gg#X	4b 4a	.	]
8F#XJ	.	.	.	.
4BB\	4dd#X)	4b 4a	.	.
*Xped	*	*	*	*
=181	=181	=181	=181	=181
*ped	*	*	*	*
8EEL	4ff#X	4rg	.	.
8BB	.	.	.	.
!	!	!	!	!LO:HP:b=2
8E	2ee	4b 4g#X	.	<
8G#X	.	.	.	.
8B	.	4b 4g#	.	.
8eJ	.	.	.	[
=182	=182	=182	=182	=182
!	!	!	!	!LO:HP:b=2
4g#X	4r	2ryy	.	>
8f#XL	(>4b/	.	.	.
8e	.	.	.	.
8d#X	[4b	4g#y	.	.
8c#XJ	.	.	.	.
=183	=183	=183	=183	=183
(>8d#XL	4b]	4rc	.	.
8c#X	.	.	.	]
*ped	*	*	*	*
8B	4b	4a	.	.
8F#XJ	.	.	.	.
4BB)\	[4ff#y	4b 4a	.	.
=184	=184	=184	=184	=184
*Xped	*	*	*	*
(>8d#XL	4ff#]	4rg	.	.
*ped	*	*	*	*
8c#X	.	.	.	.
8B	4gg#X	4b 4a	.	.
8F#yXJ	.	.	.	.
4BB)\	4dd#X	4b 4a	.	.
*Xped	*	*	*	*
.	.	.	.	.
!!LO:LB:g=original
=185	=185	=185	=185	=185
*ped	*	*	*	*
(>8EEL	4ff#X	4rg	.	.
8BB	.	.	.	.
!	!	!	!	!LO:HP:b=2
8E	[2ee	4b 4g#X	.	<
8G#X	.	.	.	.
8B	.	4b 4g#	.	.
8eJ	.	.	.	[
=186	=186	=186	=186	=186
!	!	!	!	!LO:HP:b=2
4g#X	2ee]	4rg	.	>
8eL	.	4b 4g#X	.	.
8B	.	.	.	.
8G#X	4ryy	4b\ 4g#)	.	.
.	.	.	.	]
8EJ)	.	.	.	.
*	*v	*v	*	*
=187	=187	=187	=187
!	!LO:TX:B:t=poco ritenuto.	!	!
8EEL	4r	.	.
!	!	!	!LO:HP:b=2
8BB	.	.	<
8E	4b 4g#X	.	.
8B	.	.	.
8e>	(>4b 4g#	.	.
8b>J	.	.	.
.	.	.	[
=188	=188	=188	=188
2.rF	2ee	.	.
.	[4e)	.	.
*Xped	*	*	*
=189	=189	=189	=189
*^	*	*	*
2E	[2.AA	4e]	.	.
.	.	(>4e 4c	.	.
8DL	.	4a 4c)	.	.
8EJ	.	.	.	.
!!LO:LB:g=original
=190	=190	=190	=190	=190
(>2F	2.AA_	4r	.	.
.	.	(>4d 4B	.	.
8GL	.	4a 4B)	.	.
8FJ)	.	.	.	.
=191	=191	=191	=191	=191
(>2E	2.AA_	4r	.	.
.	.	(>4e 4c	.	.
8DL	.	4a 4c)	.	.
8EJ	.	.	.	.
=192	=192	=192	=192	=192
2F	2.AA]	4r	.	.
.	.	(>4d 4B	.	.
8GL	.	4a 4B)	.	.
8FJ	.	.	.	.
*v	*v	*	*	*
=193	=193	=193	=193
2Et)	4r	.	.
.	(>4e 4c	.	.
(>8D#XL	4a 4c)	.	.
[<8EJ	.	.	.
=194	=194	=194	=194
*^	*	*	*
2c	2.E_	4r	.	.
.	.	(>4f#X 4d#X	.	.
8BL	.	4a 4d#)	.	.
8AJ	.	.	.	.
!!LO:LB:g=original
=195	=195	=195	=195	=195
4B	2.E_	4r	.	.
!	!	!	!	!LO:HP:b=2
8cL	.	(>4e 4dn	.	<
8B	.	.	.	.
8A#X	.	4g#X 4d)	.	.
8BJ	.	.	.	.
.	.	.	.	[
=196	=196	=196	=196	=196
2e	2E]	4r	.	.
.	.	(>4d	.	.
4E	4E	4g# 4d)	.	.
=197	=197	=197	=197	=197
2E	[2.AA	4r	.	.
.	.	(>4e 4c	.	.
8DL	.	4a 4c)	.	.
8EJ	.	.	.	.
=198	=198	=198	=198	=198
2F	2.AA_	4r	.	.
.	.	(>4d 4B	.	.
8GL	.	4a 4B)	.	.
8FJ	.	.	.	.
=199	=199	=199	=199	=199
(>2E)	2.AA_	4r	.	.
.	.	(>4e 4c	.	.
8DL	.	4a 4c)	.	.
8EJ	.	.	.	.
!!LO:LB:g=original
=200	=200	=200	=200	=200
2F	(<2.AA]	4r	.	.
.	.	(>4d 4B	.	.
8GL	.	4a 4B)	.	.
8FJ	.	.	.	.
*v	*v	*	*	*
=201	=201	=201	=201
2Et))	4r	.	.
.	(>4e 4c	.	.
(>8D#XL	4a 4c)	.	.
[8EJ	.	.	.
=202	=202	=202	=202
*^	*	*	*
2c	2.E_	4r	.	.
.	.	(>4f#X 4d#X	.	.
8BL	.	4a 4d#)	.	.
8AJ	.	.	.	.
=203	=203	=203	=203	=203
2B	2.E]	4r	.	.
.	.	(>4e 4dn	.	.
8cL	.	4g#X 4d)	.	.
8BJ	.	.	.	.
*v	*v	*	*	*
=204	=204	=204	=204
4A)	4a 4c	.	.
4r	4r	.	.
4r	4r	.	.
!	!LO:TX:a:B:t=Fine.	!	!
.	.	.	.
==	==	==	==
*-	*-	*-	*-
!!title: @{OTL}; @{OPS} @{ONM} publisher: @{PPR}
!!!RDF**kern: > = above
!!!RDF**kern: < = below
!!!ENC: Marta Lawrence
!!!END: 2018-08-05
!!!EED: Tomasz Sierawski
!!!EST: 2018-08-05
!!!EED2: Emilia Ziętek
!!!EST2: 2019-11-06
!!!rism-genre: Waltz
!!!rism-key: A minor
!!!rism-opus: op. 34, no 2
!!!rism-title: Waltz in A minor op. 34, no 2
!!!rism-permalink: 
